apps/site/public/icons/technologies/typeorm.svg

<svg width="48" height="48" viewBox="0 0 48 48" fill="none" xmlns="http://www.w3.org/2000/svg">
<path d="M30.9708 9.75544C31.2945 9.4304 31.8195 9.4304 32.1432 9.75545L45.7374 23.4039C46.0611 23.7289 46.0611 24.2559 45.7374 24.581L32.1421 38.2305C31.8184 38.5556 31.2934 38.5556 30.9697 38.2305L17.3756 24.5822C17.0519 24.2571 17.0519 23.7301 17.3756 23.405L30.9708 9.75544Z" fill="#2A004E"/>
<path d="M12.1492 24.5863C11.8264 24.2622 11.8264 23.738 12.1492 23.4138L23.5247 11.9933C23.9068 11.6097 23.8256 10.9681 23.3414 10.7256C21.3666 9.73669 19.145 9.17195 16.7874 9.17195C8.63278 9.17195 2.02002 15.8112 2.02002 24C2.02002 32.189 8.63278 38.828 16.7874 38.828C19.1445 38.828 21.3665 38.2629 23.3414 37.2738C23.8256 37.0315 23.9068 36.39 23.5247 36.0062L12.1492 24.5863Z" fill="#F14A00"/>
</svg>

<svg xmlns="http://www.w3.org/2000/svg" width="48" height="48" fill="none" viewBox="0 0 48 48"><path fill="#2a004e" d="M30.97 9.755a.827.827 0 0 1 1.173 0l13.594 13.649a.835.835 0 0 1 0 1.177l-13.595 13.65a.827.827 0 0 1-1.172 0L17.376 24.582a.835.835 0 0 1 0-1.177z"/><path fill="#f14a00" d="M12.15 24.586a.83.83 0 0 1 0-1.172l11.375-11.42c.382-.384.3-1.026-.184-1.268a14.6 14.6 0 0 0-6.554-1.554C8.633 9.172 2.02 15.812 2.02 24c0 8.189 6.613 14.828 14.767 14.828 2.358 0 4.58-.565 6.554-1.554.485-.242.566-.884.184-1.268z"/></svg>
